X: 4
T:Cackling Of Ye Hens. JBa.04
T:Hen's March to the Midden,aka. JBa.04
M:C|
L:1/8
Q:180
C:Hen's March to the Midden,aka
S:Joseph Barnes MS,Carlisle,1762.
R:Air
O:England
A:Carlisle
N:No key signature given. Version in Walsh MS 1730 is in Dmajor..NB -
N:the
N:marks above the notes are shown as short  vertical dashes above the
N:stave...CGr.
Z:vmp.C.Graebe.
K:D major
"No Key Sig in MS,see note"\
d2A2 defg | a2 gf efde | "Unclear" A2A2 dcde |\
 fgfg "sh"g3 g|!
a4-agfa | gfeg fede | A3A dcde | fagf "sh"e4 | d8 :|!
|:."NB"d2.d2.d2.d2 | .d2 .d.d (f3a) | .d2 .d.d (bg3)|\
.d2 .d.d (f3a) |!
 .d2 .d.d (b"cr"g3) | .d2 .d.d (f3a) |\
 (f3a) a4-|agfa gfeg |!
 fede A3A | d2 de fagf | "sh" e4d4 |]
